actions/symbolic/mail-reply-all-symbolic-rtl.svg

<svg height="16" width="16" xmlns="http://www.w3.org/2000/svg">
    <g color="#000" fill="gray">
        <path d="M5 4v4.5c0 1.25.393 1.759 1.023 2.09.631.33 1.594.41 2.606.41h4.541v1H4.629c-1.052 0-2.153-.044-3.07-.525C.64 10.993 0 10 0 8.5V4h1v4.5c0 1.25.393 1.759 1.023 2.09.631.33 1.594.41 2.606.41h.283C4.354 10.447 4 9.614 4 8.5V4z" style="line-height:normal;font-variant-ligatures:none;font-variant-position:normal;font-variant-caps:normal;font-variant-numeric:normal;font-variant-alternates:normal;font-feature-settings:normal;text-indent:0;text-align:start;text-decoration-line:none;text-decoration-style:solid;text-decoration-color:#000;text-transform:none;shape-padding:0;isolation:auto;mix-blend-mode:normal;marker:none" font-weight="400" font-family="sans-serif" white-space="normal" overflow="visible"/>
        <path d="M11 9l.002 5c.76-.348 1.535-.737 2.323-1.166.78-.431 1.534-.876 2.259-1.334-.725-.449-1.478-.889-2.26-1.32A43.084 43.084 0 0 0 11.002 9z" style="marker:none" overflow="visible"/>
    </g>
</svg>

<?xml version="1.0" encoding="UTF-8" standalone="no"?>
<svg
   xmlns:dc="http://purl.org/dc/elements/1.1/"
   xmlns:cc="http://creativecommons.org/ns#"
   xmlns:rdf="http://www.w3.org/1999/02/22-rdf-syntax-ns#"
   xmlns:svg="http://www.w3.org/2000/svg"
   xmlns="http://www.w3.org/2000/svg"
   xmlns:sodipodi="http://sodipodi.sourceforge.net/DTD/sodipodi-0.dtd"
   xmlns:inkscape="http://www.inkscape.org/namespaces/inkscape"
   height="16"
   width="16"
   version="1.1"
   id="svg8"
   sodipodi:docname="mail-reply-all-symbolic-rtl.svg"
   inkscape:version="0.92.3 (2405546, 2018-03-11)">
  <metadata
     id="metadata14">
    <rdf:RDF>
      <cc:Work
         rdf:about="">
        <dc:format>image/svg+xml</dc:format>
        <dc:type
           rdf:resource="http://purl.org/dc/dcmitype/StillImage" />
      </cc:Work>
    </rdf:RDF>
  </metadata>
  <defs
     id="defs12" />
  <sodipodi:namedview
     pagecolor="#ffffff"
     bordercolor="#666666"
     borderopacity="1"
     objecttolerance="10"
     gridtolerance="10"
     guidetolerance="10"
     inkscape:pageopacity="0"
     inkscape:pageshadow="2"
     inkscape:window-width="770"
     inkscape:window-height="480"
     id="namedview10"
     showgrid="false"
     inkscape:zoom="14.75"
     inkscape:cx="8"
     inkscape:cy="8"
     inkscape:window-x="0"
     inkscape:window-y="34"
     inkscape:window-maximized="0"
     inkscape:current-layer="svg8" />
  <g
     id="g6"
     transform="matrix(1,0,0,-1,0,18)"
     style="color:#000000;fill:#808080">
    <path
       d="M 5,4 V 8.5 C 5,9.75 5.393,10.259 6.023,10.59 6.654,10.92 7.617,11 8.629,11 h 4.541 v 1 H 4.629 C 3.577,12 2.476,11.956 1.559,11.475 0.64,10.993 0,10 0,8.5 V 4 H 1 V 8.5 C 1,9.75 1.393,10.259 2.023,10.59 2.654,10.92 3.617,11 4.629,11 H 4.912 C 4.354,10.447 4,9.614 4,8.5 V 4 Z"
       style="font-weight:400;line-height:normal;font-family:sans-serif;font-variant-ligatures:none;font-variant-position:normal;font-variant-caps:normal;font-variant-numeric:normal;font-variant-alternates:normal;font-feature-settings:normal;text-indent:0;text-align:start;text-decoration:none;text-decoration-line:none;text-decoration-style:solid;text-decoration-color:#000000;text-transform:none;white-space:normal;shape-padding:0;overflow:visible;isolation:auto;mix-blend-mode:normal;marker:none"
       font-weight="400"
       overflow="visible"
       id="path2"
       inkscape:connector-curvature="0" />
    <path
       d="m 11,9 0.002,5 c 0.76,-0.348 1.535,-0.737 2.323,-1.166 0.78,-0.431 1.534,-0.876 2.259,-1.334 -0.725,-0.449 -1.478,-0.889 -2.26,-1.32 A 43.084,43.084 0 0 0 11.002,9 Z"
       style="overflow:visible;marker:none"
       overflow="visible"
       id="path4"
       inkscape:connector-curvature="0" />
  </g>
</svg>
